X:1
T:Mister Frog Went A-Courtin'
M:4/4
L:1/4
K:G
 D/2D/2| G G/2G/2 G/2G/2 B| A G E D| G2 z D| G2 z B/2B/2| d d/2d/2 d/2d/2 d|\
 e d B3/2 B/2| A A/2A/2 A G| B G E D| G2 z D| G2 z||
